X: 1
T: Pigtown Fling, The
M: 4/4
L: 1/8
R: reel
K: Gmaj
G2ge d2ed|Bdge dBAB| G2ge d2ed|1B2Ac BGEF:|2B2Ac BGG2||
Beed e2fe|dfaf gfed|Beed e2fe|1 dfaf g4:|2 dgfa gedB||

